X:1
T:Morning Star
C:Traditional
M:4/4
L:1/4
Q:1/4=112
K:D
F/2G/2|A/2B/2A/2F/2 DE/2F/2|G/2B/2G/2E/2 CF/2G/2|A/2B/2A/2F/2 DG/2E/2|F2D2|
A/2B/2A/2F/2 DE/2F/2|G/2B/2G/2E/2 CF/2G/2|A/2B/2A/2F/2 DG/2E/2|F2D2|
a/2b/2a/2f/2 de/2f/2|g/2b/2g/2e/2 cf/2g/2|a/2b/2a/2f/2 dg/2e/2|f2d2|]
